frontend/public/assets/material-icons/webassembly.svg

<svg xmlns="http://www.w3.org/2000/svg" viewBox="0 0 32 32"><path fill="#7c4dff" d="M22 18h4v4h-4z"/><path fill="#7c4dff" d="M20 2a4 4 0 0 1-8 0H2v28h28V2Zm-2 24h-2v2h-4v-2h-2v2H6v-2H4V16h2v10h4V16h2v10h4V16h2Zm10 2h-2v-4h-4v4h-2V18h2v-2h4v2h2Z"/></svg>

<svg xmlns="http://www.w3.org/2000/svg" viewBox="0 0 32 32">
  <g>
    <rect x="22" y="18" width="4" height="4" style="fill: #7c4dff"/>
    <path d="M20,2a4,4,0,0,1-8,0H2V30H30V2ZM18,26H16v2H12V26H10v2H6V26H4V16H6V26h4V16h2V26h4V16h2Zm10,2H26V24H22v4H20V18h2V16h4v2h2Z" style="fill: #7c4dff"/>
  </g>
</svg>
